flaticon/grooming/manicure-13.svg

<svg xmlns="http://www.w3.org/2000/svg" width="32" height="32" viewBox="0 0 24 24">
    <path d="M14.851562 20.742188L9.148438 20.742188C8.902344 20.742188 8.742188 20.902344 8.742188 21.148438 8.742188 21.390625 8.902344 21.554688 9.148438 21.554688L14.851562 21.554688C15.097656 21.554688 15.257812 21.390625 15.257812 21.148438 15.257812 20.902344 15.097656 20.742188 14.851562 20.742188zM14.851562 19.109375L9.148438 19.109375C8.902344 19.109375 8.742188 19.273438 8.742188 19.519531 8.742188 19.761719 8.902344 19.925781 9.148438 19.925781L14.851562 19.925781C15.097656 19.925781 15.257812 19.761719 15.257812 19.519531 15.257812 19.273438 15.097656 19.109375 14.851562 19.109375zM14.851562 19.109375"/>
    <path d="M 16.320312 8.109375 L 16.238281 8.027344 L 16.214844 8.027344 C 15.757812 4.191406 14.792969 2.117188 13.957031 0.980469 C 13.464844 0.371094 12.734375 -0.0390625 11.917969 0.00390625 C 11.105469 0.00390625 10.371094 0.371094 9.921875 1.019531 C 9.113281 2.097656 8.195312 4.164062 7.765625 8.027344 L 7.722656 8.070312 C 6.296875 8.964844 5.480469 10.515625 5.480469 12.144531 L 5.480469 18.703125 C 5.480469 21.636719 7.84375 24 10.777344 24 L 13.222656 24 C 16.15625 24 18.519531 21.636719 18.519531 18.703125 L 18.519531 12.144531 C 18.519531 10.472656 17.703125 8.964844 16.320312 8.109375 Z M 9.96875 2.480469 C 10 2.683594 10.152344 2.8125 10.371094 2.8125 C 10.613281 2.8125 10.777344 2.652344 10.777344 2.40625 C 10.777344 2.164062 10.613281 2 10.371094 2 C 10.308594 2 10.253906 2.011719 10.203125 2.035156 C 10.3125 1.835938 10.425781 1.664062 10.535156 1.511719 C 10.609375 1.410156 10.691406 1.316406 10.78125 1.238281 C 10.800781 1.453125 10.957031 1.589844 11.183594 1.589844 C 11.429688 1.589844 11.59375 1.429688 11.59375 1.183594 C 11.59375 1.054688 11.546875 0.945312 11.464844 0.875 C 11.609375 0.835938 11.761719 0.816406 11.917969 0.816406 C 12.121094 0.816406 12.320312 0.855469 12.503906 0.921875 C 12.441406 0.996094 12.40625 1.089844 12.40625 1.183594 C 12.40625 1.429688 12.570312 1.589844 12.816406 1.589844 C 12.988281 1.589844 13.121094 1.511719 13.183594 1.375 C 13.210938 1.40625 13.238281 1.4375 13.261719 1.46875 C 13.382812 1.625 13.503906 1.800781 13.628906 2 C 13.382812 2 13.222656 2.203125 13.222656 2.40625 C 13.222656 2.652344 13.386719 2.8125 13.628906 2.8125 C 13.785156 2.8125 13.910156 2.746094 13.976562 2.636719 C 14.074219 2.828125 14.167969 3.039062 14.261719 3.265625 C 14.121094 3.335938 14.039062 3.480469 14.039062 3.628906 C 14.039062 3.875 14.199219 4.035156 14.445312 4.035156 C 14.480469 4.035156 14.511719 4.03125 14.542969 4.027344 C 14.808594 4.808594 15.042969 5.75 15.234375 6.890625 C 15.003906 6.902344 14.851562 7.097656 14.851562 7.296875 C 14.851562 7.539062 15.015625 7.703125 15.257812 7.703125 C 15.292969 7.703125 15.324219 7.699219 15.351562 7.695312 C 15.425781 8.234375 15.488281 8.808594 15.535156 9.429688 C 15.464844 9.367188 15.371094 9.332031 15.257812 9.332031 C 15.015625 9.332031 14.851562 9.535156 14.851562 9.742188 C 14.851562 9.984375 15.015625 10.148438 15.257812 10.148438 C 15.394531 10.148438 15.507812 10.097656 15.578125 10.011719 C 15.582031 10.058594 15.585938 10.113281 15.585938 10.164062 C 15.621094 10.78125 15.648438 11.425781 15.660156 12.097656 C 15.625 11.902344 15.472656 11.777344 15.257812 11.777344 C 15.015625 11.777344 14.851562 11.980469 14.851562 12.183594 C 14.851562 12.429688 15.015625 12.59375 15.257812 12.59375 C 15.480469 12.59375 15.632812 12.460938 15.660156 12.253906 C 15.664062 12.488281 15.667969 12.722656 15.667969 12.957031 L 15.667969 13.324219 C 15.667969 13.664062 15.609375 13.992188 15.503906 14.292969 C 15.4375 14.246094 15.355469 14.222656 15.257812 14.222656 C 15.015625 14.222656 14.851562 14.425781 14.851562 14.628906 C 14.851562 14.828125 14.960938 14.972656 15.132812 15.019531 C 15.003906 15.203125 14.855469 15.367188 14.691406 15.515625 C 14.625 15.46875 14.542969 15.445312 14.445312 15.445312 C 14.199219 15.445312 14.039062 15.648438 14.039062 15.851562 C 14.039062 15.886719 14.042969 15.921875 14.046875 15.953125 C 13.691406 16.128906 13.292969 16.234375 12.871094 16.253906 C 13.085938 16.230469 13.222656 16.078125 13.222656 15.851562 C 13.222656 15.605469 13.058594 15.445312 12.816406 15.445312 C 12.570312 15.445312 12.40625 15.648438 12.40625 15.851562 C 12.40625 16.085938 12.558594 16.246094 12.785156 16.257812 C 12.765625 16.257812 12.75 16.257812 12.734375 16.257812 L 11.265625 16.257812 C 11.25 16.257812 11.234375 16.257812 11.214844 16.257812 C 11.441406 16.246094 11.59375 16.085938 11.59375 15.851562 C 11.59375 15.605469 11.429688 15.445312 11.183594 15.445312 C 10.941406 15.445312 10.777344 15.648438 10.777344 15.851562 C 10.777344 16.078125 10.914062 16.230469 11.128906 16.253906 C 10.707031 16.234375 10.308594 16.128906 9.953125 15.953125 C 9.960938 15.921875 9.964844 15.886719 9.964844 15.851562 C 9.964844 15.605469 9.800781 15.445312 9.554688 15.445312 C 9.460938 15.445312 9.378906 15.472656 9.316406 15.523438 C 9.148438 15.371094 8.996094 15.203125 8.867188 15.019531 C 9.039062 14.972656 9.148438 14.828125 9.148438 14.628906 C 9.148438 14.386719 8.984375 14.222656 8.742188 14.222656 C 8.644531 14.222656 8.5625 14.253906 8.5 14.300781 C 8.390625 13.996094 8.332031 13.667969 8.332031 13.324219 L 8.332031 12.957031 C 8.332031 12.722656 8.335938 12.488281 8.339844 12.253906 C 8.367188 12.460938 8.519531 12.59375 8.742188 12.59375 C 8.984375 12.59375 9.148438 12.429688 9.148438 12.183594 C 9.148438 11.941406 8.984375 11.777344 8.742188 11.777344 C 8.527344 11.777344 8.375 11.933594 8.339844 12.109375 C 8.351562 11.382812 8.382812 10.683594 8.421875 10.007812 C 8.492188 10.097656 8.605469 10.148438 8.742188 10.148438 C 8.984375 10.148438 9.148438 9.984375 9.148438 9.738281 C 9.148438 9.496094 8.984375 9.332031 8.742188 9.332031 C 8.625 9.332031 8.527344 9.378906 8.457031 9.449219 C 8.476562 9.152344 8.5 8.859375 8.523438 8.570312 C 8.554688 8.265625 8.585938 7.972656 8.621094 7.6875 C 8.660156 7.699219 8.699219 7.703125 8.742188 7.703125 C 8.984375 7.703125 9.148438 7.539062 9.148438 7.296875 C 9.148438 7.050781 8.984375 6.886719 8.742188 6.886719 C 8.738281 6.886719 8.734375 6.886719 8.734375 6.890625 C 8.910156 5.730469 9.132812 4.78125 9.375 4 C 9.429688 4.023438 9.488281 4.035156 9.554688 4.035156 C 9.800781 4.035156 9.964844 3.875 9.964844 3.628906 C 9.964844 3.414062 9.839844 3.265625 9.644531 3.230469 C 9.75 2.953125 9.859375 2.707031 9.96875 2.480469 Z M 17.703125 18.703125 C 17.703125 21.1875 15.707031 23.183594 13.222656 23.183594 L 10.777344 23.183594 C 8.292969 23.183594 6.296875 21.1875 6.296875 18.703125 L 6.296875 12.144531 C 6.296875 10.960938 6.785156 9.863281 7.640625 9.128906 C 7.558594 10.3125 7.519531 11.574219 7.519531 12.957031 L 7.519531 13.324219 C 7.519531 15.402344 9.1875 17.074219 11.265625 17.074219 L 12.734375 17.074219 C 14.8125 17.074219 16.480469 15.402344 16.480469 13.324219 L 16.480469 12.957031 C 16.480469 11.945312 16.457031 10.957031 16.394531 10.023438 C 16.375 9.71875 16.355469 9.425781 16.328125 9.136719 C 17.21875 9.871094 17.703125 10.96875 17.703125 12.144531 Z M 17.703125 18.703125"/>
    <path d="M13.628906 14.222656C13.386719 14.222656 13.222656 14.425781 13.222656 14.628906 13.222656 14.875 13.386719 15.035156 13.628906 15.035156 13.875 15.035156 14.039062 14.875 14.039062 14.628906 14.039062 14.386719 13.875 14.222656 13.628906 14.222656zM9.554688 13C9.3125 13 9.148438 13.203125 9.148438 13.40625 9.148438 13.652344 9.3125 13.8125 9.554688 13.8125 9.800781 13.8125 9.960938 13.652344 9.960938 13.40625 9.960938 13.164062 9.800781 13 9.554688 13zM10.371094 11.777344C10.125 11.777344 9.960938 11.980469 9.960938 12.183594 9.960938 12.429688 10.125 12.59375 10.371094 12.59375 10.613281 12.59375 10.777344 12.429688 10.777344 12.183594 10.777344 11.941406 10.613281 11.777344 10.371094 11.777344zM12 14.222656C11.753906 14.222656 11.59375 14.425781 11.59375 14.628906 11.59375 14.875 11.753906 15.035156 12 15.035156 12.246094 15.035156 12.40625 14.875 12.40625 14.628906 12.40625 14.386719 12.246094 14.222656 12 14.222656zM13.628906 12.59375C13.875 12.59375 14.039062 12.429688 14.039062 12.183594 14.039062 11.941406 13.875 11.777344 13.628906 11.777344 13.386719 11.777344 13.222656 11.980469 13.222656 12.183594 13.222656 12.429688 13.386719 12.59375 13.628906 12.59375zM12 12.59375C12.246094 12.59375 12.40625 12.429688 12.40625 12.183594 12.40625 11.941406 12.246094 11.777344 12 11.777344 11.753906 11.777344 11.59375 11.980469 11.59375 12.183594 11.59375 12.429688 11.753906 12.59375 12 12.59375zM10.371094 14.222656C10.125 14.222656 9.960938 14.425781 9.960938 14.628906 9.960938 14.875 10.125 15.035156 10.371094 15.035156 10.613281 15.035156 10.777344 14.875 10.777344 14.628906 10.777344 14.386719 10.613281 14.222656 10.371094 14.222656zM11.183594 13C10.941406 13 10.777344 13.203125 10.777344 13.40625 10.777344 13.652344 10.941406 13.8125 11.183594 13.8125 11.429688 13.8125 11.59375 13.652344 11.59375 13.40625 11.59375 13.164062 11.429688 13 11.183594 13zM12.816406 13C12.570312 13 12.40625 13.203125 12.40625 13.40625 12.40625 13.652344 12.570312 13.8125 12.816406 13.8125 13.058594 13.8125 13.222656 13.652344 13.222656 13.40625 13.222656 13.164062 13.058594 13 12.816406 13zM14.445312 13C14.199219 13 14.039062 13.203125 14.039062 13.40625 14.039062 13.652344 14.199219 13.8125 14.445312 13.8125 14.6875 13.8125 14.851562 13.652344 14.851562 13.40625 14.851562 13.164062 14.6875 13 14.445312 13zM9.554688 11.371094C9.800781 11.371094 9.960938 11.207031 9.960938 10.960938 9.960938 10.71875 9.800781 10.554688 9.554688 10.554688 9.3125 10.554688 9.148438 10.757812 9.148438 10.960938 9.148438 11.207031 9.3125 11.371094 9.554688 11.371094zM10.371094 9.332031C10.125 9.332031 9.960938 9.535156 9.960938 9.738281 9.960938 9.984375 10.125 10.148438 10.371094 10.148438 10.613281 10.148438 10.777344 9.984375 10.777344 9.738281 10.777344 9.496094 10.613281 9.332031 10.371094 9.332031zM13.628906 9.332031C13.386719 9.332031 13.222656 9.535156 13.222656 9.738281 13.222656 9.984375 13.386719 10.148438 13.628906 10.148438 13.875 10.148438 14.039062 9.984375 14.039062 9.738281 14.039062 9.496094 13.875 9.332031 13.628906 9.332031zM12 9.332031C11.753906 9.332031 11.59375 9.535156 11.59375 9.738281 11.59375 9.984375 11.753906 10.148438 12 10.148438 12.246094 10.148438 12.40625 9.984375 12.40625 9.738281 12.40625 9.496094 12.246094 9.332031 12 9.332031zM11.183594 11.371094C11.429688 11.371094 11.59375 11.207031 11.59375 10.960938 11.59375 10.71875 11.429688 10.554688 11.183594 10.554688 10.941406 10.554688 10.777344 10.757812 10.777344 10.960938 10.777344 11.207031 10.941406 11.371094 11.183594 11.371094zM12.816406 11.371094C13.058594 11.371094 13.222656 11.207031 13.222656 10.960938 13.222656 10.71875 13.058594 10.554688 12.816406 10.554688 12.570312 10.554688 12.40625 10.757812 12.40625 10.960938 12.40625 11.207031 12.570312 11.371094 12.816406 11.371094zM14.445312 10.554688C14.199219 10.554688 14.039062 10.757812 14.039062 10.960938 14.039062 11.207031 14.199219 11.371094 14.445312 11.371094 14.6875 11.371094 14.851562 11.207031 14.851562 10.960938 14.851562 10.71875 14.6875 10.554688 14.445312 10.554688zM9.554688 8.925781C9.800781 8.925781 9.960938 8.761719 9.960938 8.519531 9.960938 8.273438 9.800781 8.109375 9.554688 8.109375 9.3125 8.109375 9.148438 8.3125 9.148438 8.519531 9.148438 8.761719 9.3125 8.925781 9.554688 8.925781zM10.371094 6.886719C10.125 6.886719 9.960938 7.09375 9.960938 7.296875 9.960938 7.539062 10.125 7.703125 10.371094 7.703125 10.613281 7.703125 10.777344 7.539062 10.777344 7.296875 10.777344 7.050781 10.613281 6.886719 10.371094 6.886719zM13.628906 6.886719C13.386719 6.886719 13.222656 7.09375 13.222656 7.296875 13.222656 7.539062 13.386719 7.703125 13.628906 7.703125 13.875 7.703125 14.039062 7.539062 14.039062 7.296875 14.039062 7.050781 13.875 6.886719 13.628906 6.886719zM12 7.703125C12.246094 7.703125 12.40625 7.539062 12.40625 7.296875 12.40625 7.050781 12.246094 6.886719 12 6.886719 11.753906 6.886719 11.59375 7.09375 11.59375 7.296875 11.59375 7.539062 11.753906 7.703125 12 7.703125zM11.183594 8.925781C11.429688 8.925781 11.59375 8.761719 11.59375 8.519531 11.59375 8.273438 11.429688 8.109375 11.183594 8.109375 10.941406 8.109375 10.777344 8.3125 10.777344 8.519531 10.777344 8.761719 10.941406 8.925781 11.183594 8.925781zM12.816406 8.925781C13.058594 8.925781 13.222656 8.761719 13.222656 8.519531 13.222656 8.273438 13.058594 8.109375 12.816406 8.109375 12.570312 8.109375 12.40625 8.3125 12.40625 8.519531 12.40625 8.761719 12.570312 8.925781 12.816406 8.925781zM14.445312 8.109375C14.199219 8.109375 14.039062 8.3125 14.039062 8.519531 14.039062 8.761719 14.199219 8.925781 14.445312 8.925781 14.6875 8.925781 14.851562 8.761719 14.851562 8.519531 14.851562 8.273438 14.6875 8.109375 14.445312 8.109375zM9.554688 6.480469C9.800781 6.480469 9.960938 6.316406 9.960938 6.074219 9.960938 5.828125 9.800781 5.664062 9.554688 5.664062 9.3125 5.664062 9.148438 5.871094 9.148438 6.074219 9.148438 6.316406 9.3125 6.480469 9.554688 6.480469zM10.371094 5.257812C10.613281 5.257812 10.777344 5.09375 10.777344 4.851562 10.777344 4.605469 10.613281 4.445312 10.371094 4.445312 10.125 4.445312 9.960938 4.648438 9.960938 4.851562 9.960938 5.09375 10.125 5.257812 10.371094 5.257812zM13.628906 5.257812C13.875 5.257812 14.039062 5.09375 14.039062 4.851562 14.039062 4.605469 13.875 4.445312 13.628906 4.445312 13.386719 4.445312 13.222656 4.648438 13.222656 4.851562 13.222656 5.09375 13.386719 5.257812 13.628906 5.257812zM12 4.445312C11.753906 4.445312 11.59375 4.648438 11.59375 4.851562 11.59375 5.09375 11.753906 5.257812 12 5.257812 12.246094 5.257812 12.40625 5.09375 12.40625 4.851562 12.40625 4.605469 12.246094 4.445312 12 4.445312zM11.183594 5.664062C10.941406 5.664062 10.777344 5.871094 10.777344 6.074219 10.777344 6.316406 10.941406 6.480469 11.183594 6.480469 11.429688 6.480469 11.59375 6.316406 11.59375 6.074219 11.59375 5.828125 11.429688 5.664062 11.183594 5.664062zM12.816406 5.664062C12.570312 5.664062 12.40625 5.871094 12.40625 6.074219 12.40625 6.316406 12.570312 6.480469 12.816406 6.480469 13.058594 6.480469 13.222656 6.316406 13.222656 6.074219 13.222656 5.828125 13.058594 5.664062 12.816406 5.664062zM14.445312 6.480469C14.6875 6.480469 14.851562 6.316406 14.851562 6.074219 14.851562 5.828125 14.6875 5.664062 14.445312 5.664062 14.199219 5.664062 14.039062 5.871094 14.039062 6.074219 14.039062 6.316406 14.199219 6.480469 14.445312 6.480469zM12 2.8125C12.246094 2.8125 12.40625 2.652344 12.40625 2.40625 12.40625 2.164062 12.246094 2 12 2 11.753906 2 11.59375 2.203125 11.59375 2.40625 11.59375 2.652344 11.753906 2.8125 12 2.8125zM11.183594 4.035156C11.429688 4.035156 11.59375 3.875 11.59375 3.628906 11.59375 3.382812 11.429688 3.222656 11.183594 3.222656 10.941406 3.222656 10.777344 3.425781 10.777344 3.628906 10.777344 3.875 10.941406 4.035156 11.183594 4.035156zM12.816406 4.035156C13.058594 4.035156 13.222656 3.875 13.222656 3.628906 13.222656 3.382812 13.058594 3.222656 12.816406 3.222656 12.570312 3.222656 12.40625 3.425781 12.40625 3.628906 12.40625 3.875 12.570312 4.035156 12.816406 4.035156zM12.816406 4.035156"/>
</svg>

<svg xmlns="http://www.w3.org/2000/svg" width="32" height="32" viewBox="0 0 24 24">
    <path d="M14.852 20.742H9.148c-.246 0-.406.16-.406.406 0 .243.16.407.406.407h5.704c.246 0 .406-.164.406-.407 0-.246-.16-.406-.406-.406zm0 0M14.852 19.11H9.148c-.246 0-.406.163-.406.41 0 .242.16.406.406.406h5.704c.246 0 .406-.164.406-.406 0-.247-.16-.41-.406-.41zm0 0"/>
    <path d="M16.32 8.11l-.082-.083h-.023c-.457-3.836-1.422-5.91-2.258-7.047-.492-.609-1.223-1.02-2.039-.976-.813 0-1.547.367-1.996 1.016-.809 1.078-1.727 3.144-2.156 7.007l-.043.043a4.797 4.797 0 0 0-2.243 4.075v6.558A5.286 5.286 0 0 0 10.777 24h2.446a5.286 5.286 0 0 0 5.297-5.297v-6.558c0-1.672-.817-3.18-2.2-4.036zM9.97 2.48c.031.204.183.333.402.333.242 0 .406-.16.406-.407A.385.385 0 0 0 10.371 2a.392.392 0 0 0-.168.035c.11-.2.223-.37.332-.523.074-.102.156-.196.246-.274.02.215.176.352.403.352.246 0 .41-.16.41-.406a.397.397 0 0 0-.13-.309 1.736 1.736 0 0 1 1.04.047.41.41 0 0 0-.098.262c0 .246.164.406.41.406.172 0 .305-.078.368-.215.027.031.054.063.078.094.12.156.242.332.367.531a.406.406 0 0 0-.406.406c0 .246.164.406.406.406.156 0 .281-.066.348-.175.097.191.191.402.285.629a.407.407 0 0 0-.223.363c0 .246.16.406.406.406.035 0 .067-.004.098-.008.266.782.5 1.723.691 2.864a.406.406 0 0 0-.382.406c0 .242.164.406.406.406a.648.648 0 0 0 .094-.008c.074.54.136 1.114.183 1.735a.406.406 0 0 0-.277-.098.409.409 0 0 0-.406.41c0 .242.164.406.406.406.137 0 .25-.05.32-.136a48.894 48.894 0 0 1 .082 2.086c-.035-.196-.187-.32-.402-.32a.408.408 0 0 0-.406.406c0 .246.164.41.406.41.222 0 .375-.133.402-.34.004.234.008.469.008.703v.367c0 .34-.059.668-.164.969a.416.416 0 0 0-.246-.07.408.408 0 0 0-.406.406c0 .2.109.344.28.39a2.97 2.97 0 0 1-.44.497.416.416 0 0 0-.247-.07.406.406 0 0 0-.406.406c0 .035.004.07.008.101a2.956 2.956 0 0 1-1.176.3c.215-.023.352-.175.352-.401 0-.247-.164-.407-.407-.407a.409.409 0 0 0-.41.407c0 .234.153.394.38.406h-1.571c.226-.012.379-.172.379-.406 0-.247-.164-.407-.41-.407a.408.408 0 0 0-.407.407c0 .226.137.378.352.402a2.956 2.956 0 0 1-1.176-.3.426.426 0 0 0 .012-.102c0-.247-.164-.407-.41-.407a.372.372 0 0 0-.239.078 3.05 3.05 0 0 1-.449-.503c.172-.047.281-.192.281-.391a.385.385 0 0 0-.406-.406.399.399 0 0 0-.242.078 2.881 2.881 0 0 1-.168-.977v-.367c0-.234.004-.469.008-.703.027.207.18.34.402.34.242 0 .406-.164.406-.41a.385.385 0 0 0-.406-.407.41.41 0 0 0-.402.332c.012-.726.043-1.425.082-2.101.07.09.183.14.32.14.242 0 .406-.164.406-.41a.385.385 0 0 0-.406-.406.397.397 0 0 0-.285.117c.02-.297.043-.59.066-.879.032-.304.063-.597.098-.883.04.012.078.016.121.016a.385.385 0 0 0 .406-.406c0-.246-.164-.41-.406-.41-.004 0-.008 0-.008.004.176-1.16.399-2.11.641-2.891a.447.447 0 0 0 .18.035c.246 0 .41-.16.41-.406 0-.215-.125-.363-.32-.399.105-.277.214-.523.324-.75zm7.734 16.223a4.468 4.468 0 0 1-4.48 4.48h-2.446a4.468 4.468 0 0 1-4.48-4.48v-6.558c0-1.184.488-2.282 1.344-3.016a55.318 55.318 0 0 0-.121 3.828v.367a3.738 3.738 0 0 0 3.746 3.75h1.468a3.738 3.738 0 0 0 3.746-3.75v-.367a44.33 44.33 0 0 0-.152-3.82c.89.734 1.375 1.832 1.375 3.008zm0 0"/>
    <path d="M13.629 14.223a.408.408 0 0 0-.406.406c0 .246.164.406.406.406.246 0 .41-.16.41-.406 0-.242-.164-.406-.41-.406zm0 0M9.555 13a.408.408 0 0 0-.407.406c0 .246.165.406.407.406.246 0 .406-.16.406-.406 0-.242-.16-.406-.406-.406zm0 0M10.371 11.777a.409.409 0 0 0-.41.407c0 .246.164.41.41.41.242 0 .406-.164.406-.41a.385.385 0 0 0-.406-.407zm0 0M12 14.223a.406.406 0 0 0-.406.406c0 .246.16.406.406.406.246 0 .406-.16.406-.406 0-.242-.16-.406-.406-.406zm0 0M13.629 12.594c.246 0 .41-.164.41-.41 0-.243-.164-.407-.41-.407a.408.408 0 0 0-.406.407c0 .246.164.41.406.41zm0 0M12 12.594c.246 0 .406-.164.406-.41 0-.243-.16-.407-.406-.407a.406.406 0 0 0-.406.407c0 .246.16.41.406.41zm0 0M10.371 14.223a.409.409 0 0 0-.41.406c0 .246.164.406.41.406.242 0 .406-.16.406-.406a.385.385 0 0 0-.406-.406zm0 0M11.184 13a.408.408 0 0 0-.407.406c0 .246.164.406.407.406.246 0 .41-.16.41-.406 0-.242-.164-.406-.41-.406zm0 0M12.816 13a.409.409 0 0 0-.41.406c0 .246.164.406.41.406.243 0 .407-.16.407-.406a.385.385 0 0 0-.407-.406zm0 0M14.445 13a.406.406 0 0 0-.406.406c0 .246.16.406.406.406.242 0 .407-.16.407-.406a.385.385 0 0 0-.407-.406zm0 0M9.555 11.371c.246 0 .406-.164.406-.41 0-.242-.16-.406-.406-.406a.408.408 0 0 0-.407.406c0 .246.165.41.407.41zm0 0M10.371 9.332a.409.409 0 0 0-.41.406c0 .246.164.41.41.41.242 0 .406-.164.406-.41a.385.385 0 0 0-.406-.406zm0 0M13.629 9.332a.408.408 0 0 0-.406.406c0 .246.164.41.406.41.246 0 .41-.164.41-.41 0-.242-.164-.406-.41-.406zm0 0M12 9.332a.406.406 0 0 0-.406.406c0 .246.16.41.406.41.246 0 .406-.164.406-.41 0-.242-.16-.406-.406-.406zm0 0M11.184 11.371c.246 0 .41-.164.41-.41 0-.242-.164-.406-.41-.406a.408.408 0 0 0-.407.406c0 .246.164.41.407.41zm0 0M12.816 11.371c.243 0 .407-.164.407-.41a.385.385 0 0 0-.407-.406.409.409 0 0 0-.41.406c0 .246.164.41.41.41zm0 0M14.445 10.555a.406.406 0 0 0-.406.406c0 .246.16.41.406.41.242 0 .407-.164.407-.41a.385.385 0 0 0-.407-.406zm0 0M9.555 8.926c.246 0 .406-.164.406-.406 0-.247-.16-.41-.406-.41a.409.409 0 0 0-.407.41c0 .242.165.406.407.406zm0 0M10.371 6.887a.412.412 0 0 0-.41.41c0 .242.164.406.41.406a.385.385 0 0 0 .406-.406c0-.246-.164-.41-.406-.41zm0 0M13.629 6.887a.411.411 0 0 0-.406.41c0 .242.164.406.406.406.246 0 .41-.164.41-.406 0-.246-.164-.41-.41-.41zm0 0M12 7.703c.246 0 .406-.164.406-.406 0-.246-.16-.41-.406-.41a.409.409 0 0 0-.406.41c0 .242.16.406.406.406zm0 0M11.184 8.926c.246 0 .41-.164.41-.406 0-.247-.164-.41-.41-.41a.409.409 0 0 0-.407.41c0 .242.164.406.407.406zm0 0M12.816 8.926a.385.385 0 0 0 .407-.406c0-.247-.164-.41-.407-.41a.41.41 0 0 0-.41.41c0 .242.164.406.41.406zm0 0M14.445 8.11a.406.406 0 0 0-.406.41c0 .242.16.406.406.406a.385.385 0 0 0 .407-.406c0-.247-.165-.41-.407-.41zm0 0M9.555 6.48c.246 0 .406-.164.406-.406 0-.246-.16-.41-.406-.41a.411.411 0 0 0-.407.41c0 .242.165.406.407.406zm0 0M10.371 5.258a.385.385 0 0 0 .406-.406c0-.247-.164-.407-.406-.407a.409.409 0 0 0-.41.407c0 .242.164.406.41.406zm0 0M13.629 5.258c.246 0 .41-.164.41-.406 0-.247-.164-.407-.41-.407a.408.408 0 0 0-.406.407c0 .242.164.406.406.406zm0 0M12 4.445a.406.406 0 0 0-.406.407c0 .242.16.406.406.406.246 0 .406-.164.406-.406 0-.247-.16-.407-.406-.407zm0 0M11.184 5.664a.411.411 0 0 0-.407.41c0 .242.164.406.407.406.246 0 .41-.164.41-.406 0-.246-.164-.41-.41-.41zm0 0M12.816 5.664a.412.412 0 0 0-.41.41c0 .242.164.406.41.406a.385.385 0 0 0 .407-.406c0-.246-.164-.41-.407-.41zm0 0M14.445 6.48a.385.385 0 0 0 .407-.406c0-.246-.165-.41-.407-.41a.409.409 0 0 0-.406.41c0 .242.16.406.406.406zm0 0M12 2.813c.246 0 .406-.16.406-.407 0-.242-.16-.406-.406-.406a.406.406 0 0 0-.406.406c0 .246.16.406.406.406zm0 0M11.184 4.035c.246 0 .41-.16.41-.406 0-.246-.164-.406-.41-.406a.408.408 0 0 0-.407.406c0 .246.164.406.407.406zm0 0M12.816 4.035c.243 0 .407-.16.407-.406 0-.246-.164-.406-.407-.406a.409.409 0 0 0-.41.406c0 .246.164.406.41.406zm0 0"/>
</svg>
